X:147
T:Sandy MacDonald's
R:Reel
S:MacDonald - Skye Collection
N:pg.44
M:C
L:1/8
K:D
B|AddB AGFE|DddF E2E2|AddB AGFD|1 EC CE D2D:|2 ABAB cd d2||
gf dd Ad d2|gf dd e2d2|gf dd Ad d2|cB AB cd d2|
gf dd Ad d2|gf dd e2e2|ga fg ef de|cB AB cd d2||
